icon/ir/cart-alt.svg

<svg stroke-width="1.5" viewBox="0 0 24 24" fill="none" xmlns="http://www.w3.org/2000/svg" height="1em" width="1em">
  <path d="M19.5 22C20.3284 22 21 21.3284 21 20.5C21 19.6716 20.3284 19 19.5 19C18.6716 19 18 19.6716 18 20.5C18 21.3284 18.6716 22 19.5 22Z" fill="currentColor" stroke="currentColor" stroke-linecap="round" stroke-linejoin="round"/>
  <path d="M9.5 22C10.3284 22 11 21.3284 11 20.5C11 19.6716 10.3284 19 9.5 19C8.67157 19 8 19.6716 8 20.5C8 21.3284 8.67157 22 9.5 22Z" fill="currentColor" stroke="currentColor" stroke-linecap="round" stroke-linejoin="round"/>
  <path d="M16.5 4H22L20 15H15.5M16.5 4L15.5 15M16.5 4H10.75M15.5 15H11.5M10.75 4H5L7 15H11.5M10.75 4L11.5 15" stroke="currentColor" stroke-linecap="round" stroke-linejoin="round"/>
  <path d="M5 4C4.83333 3.33333 4 2 2 2" stroke="currentColor" stroke-linecap="round" stroke-linejoin="round"/>
  <path d="M20 15H7H5.23077C3.44646 15 2.5 15.7812 2.5 17C2.5 18.2188 3.44646 19 5.23077 19H19.5" stroke="currentColor" stroke-linecap="round" stroke-linejoin="round"/>
</svg>

<svg width="24" height="24" stroke-width="1.5" fill="none" xmlns="http://www.w3.org/2000/svg"><path d="M19.5 22a1.5 1.5 0 1 0 0-3 1.5 1.5 0 0 0 0 3ZM9.5 22a1.5 1.5 0 1 0 0-3 1.5 1.5 0 0 0 0 3Z" fill="currentColor" stroke="currentColor" stroke-linecap="round" stroke-linejoin="round"/><path d="M16.5 4H22l-2 11h-4.5m1-11-1 11m1-11h-5.75m4.75 11h-4m-.75-11H5l2 11h4.5m-.75-11 .75 11M5 4c-.167-.667-1-2-3-2M20 15H5.23c-1.784 0-2.73.781-2.73 2 0 1.219.946 2 2.73 2H19.5" stroke="currentColor" stroke-linecap="round" stroke-linejoin="round"/></svg>
